X: 21713
M: C|
L: 1/8
K: Gm
f | gag>f dfga | fdc>A FcAf |
gag>f dfga | fdc>A G3f |\
gag>f dfga | fc d/c/B/A/ c>dfa |\
gafg dfcf | AFcA G3 |]


